X:1
T:Hark! The Merry, Merry Bells
T:Hark! The Merry, Merry Bells
T:Scott Werdebaugh, 2017
T:Hymnal for Primary Classes, 1896
T:Music © 2017 Scott Werdebaugh &amp; New Heart Music -  May Be Freely Copied and Used for Christian worship or devotions with no alterations. All Other Rights Reserved.
T:Music © 2017 Scott Werdebaugh &amp; New Heart Music -  May Be Freely Copied and Used for Christian worship or devotions with no alterations. All Other Rights Reserved.
C:Scott Werdebaugh, 2017
Z:Music © 2017 Scott Werdebaugh & New Heart Music -  May Be Freely Copied and Used for
Z:Christian worship or devotions with no alterations. All Other Rights Reserved.
%%score 1 2
L:1/8
Q:1/4=115
M:4/4
K:C
V:1 treble 
V:2 bass 
V:1
 [EG]3 [CE] [CF]3 [EG] | [FA]3 [DB] [Ec]4 | [Ec]2 [DB]2 [CA]2 [DB]2 | [Ec]4 !fermata![Ec]3 z | %4
w: 1.~Hark! the mer- ry,|mer- ry bells,|Christ- mas chimes are|ring- ing;|
w: 2.~Peace on earth, good|will to men,|Tid- ings glad they’re|tell- ing;|
w: 3.~Christ is born, the|Prince of Peace,|Bells are now re-|peat- ing;|
 [Ec]2 [DB]2 [Ec]2 [DB]2 | [CA]3 [DB] [EG]3 z | [Ec]3 [DB] [Ec]3 [DB] | [Ec]4 !fermata![Ec]3 z | %8
w: Each the same glad|stor- y tells,|An- gel hosts were|sing- ing.|
w: Bless- èd Christ- mas|come a- gain,|On the air is|swell- ing.|
w: Let all strife and|dis- cord cease,|Give all kind- ly|greet- ing.|
 [Ec]2 [DB]2 [CA]2 [EG]2 | [CA]2 [DB]2 [Ec]3 z | [CF]2 [EG]2 [FA]2 [DB]2 | [Ec]2 [DB]2 [Ec]3 z | %12
w: When on far Ju-|de- a’s plain,|Shep- herds heard their|sweet re- frain,|
w: Now let notes of|praise as- cend,|Voic- es al- to-|geth- er blend,|
w: Let this day of|Je- sus’ birth|Bind to- geth- er|hearts on earth,|
 [Ec]2 [DB]2 [CA]2 [DB]2 | [EG]4 [EG]3 z | [Ec]2 [DB]2 [CA]2 [DB]2 | %15
w: From the wel- kin|ring- ing,|From the wel- kin|
w: Joy fill ev- ery|dwell- ing,|Joy fill ev- ery|
w: Time is all too|fleet- ing,|Time is all too|
 [Ec]4 !fermata![Ec]2 z2"^Play 3 times" :| %16
w: ring- ing.|
w: dwell- ing.|
w: fleet- ing.|
V:2
 [C,C]3 [C,G,] [F,A,]3 [C,C] | [F,C]3 [G,B,] [C,G,]4 | [C,G,]2 [G,,G,]2 [F,,F,]2 [G,,G,]2 | %3
 [C,G,]4 !fermata![C,G,]3 z | [C,G,]2 [G,,G,]2 [C,G,]2 [G,,G,]2 | [F,,F,]3 [G,,G,] [C,C]3 z | %6
 [C,G,]3 [G,,G,] [C,G,]3 [G,,G,] | [C,G,]4 !fermata![C,G,]3 z | [C,G,]2 [G,,G,]2 [F,,F,]2 [C,C]2 | %9
 [F,,F,]2 [G,,G,]2 [C,G,]3 z | [F,A,]2 [C,C]2 [F,,C]2 [G,,G,]2 | [C,G,]2 [G,,G,]2 [C,G,]3 z | %12
 [C,G,]2 [G,,G,]2 [F,,F,]2 [G,,G,]2 | [C,C]4 [C,C]3 z | [C,G,]2 [G,,G,]2 [F,,F,]2 [G,,G,]2 | %15
 [C,G,]4 !fermata![C,G,]2 z2"^Play 3 times" :| %16

